packages/icons/src/components/CategoryIcon/assets/organization.svg

<svg width="20" height="20" viewBox="0 0 20 20" fill="none" xmlns="http://www.w3.org/2000/svg">
<path d="M12.4 9.88889C11.512 9.88889 10.8 10.5811 10.8 11.4444C10.8 12.3036 11.5163 13 12.4 13C13.2837 13 14 12.3036 14 11.4444C14 10.5811 13.28 9.88889 12.4 9.88889Z" fill="#A060F6" className="fillStrong" />
<path d="M11.6 7.55556C11.6 6.69222 10.88 6 10 6C9.112 6 8.4 6.69222 8.4 7.55556C8.4 8.41467 9.11634 9.11111 10 9.11111C10.8837 9.11111 11.6 8.41467 11.6 7.55556Z" fill="#A060F6" className="fillStrong" />
<path d="M7.6 9.88889C6.71634 9.88889 6 10.5853 6 11.4444C6 12.3036 6.71634 13 7.6 13C8.48366 13 9.2 12.3036 9.2 11.4444C9.2 10.5811 8.48 9.88889 7.6 9.88889Z" fill="#A060F6" className="fillStrong" />
<path fill-rule="evenodd" clip-rule="evenodd" d="M10 2C5.58215 2 2 5.58215 2 10C2 14.4189 5.58215 18 10 18C14.4189 18 18 14.4189 18 10C18 5.58215 14.4189 2 10 2ZM10 4.01131C13.3026 4.01131 15.9887 6.69742 15.9887 10C15.9887 13.3016 13.3026 15.9887 10 15.9887C6.69742 15.9887 4.01131 13.3016 4.01131 10C4.01131 6.69742 6.69742 4.01131 10 4.01131Z" fill="#521094" className="fill" />
</svg>

<svg xmlns="http://www.w3.org/2000/svg" width="20" height="20" fill="none" viewBox="0 0 20 20">
    <path fill="#a060f6" d="M12.4 9.889c-.888 0-1.6.692-1.6 1.555 0 .86.716 1.556 1.6 1.556s1.6-.696 1.6-1.556c0-.863-.72-1.555-1.6-1.555m-.8-2.333C11.6 6.692 10.88 6 10 6c-.888 0-1.6.692-1.6 1.556 0 .859.716 1.555 1.6 1.555s1.6-.696 1.6-1.555m-4 2.333c-.884 0-1.6.696-1.6 1.555C6 12.304 6.716 13 7.6 13s1.6-.696 1.6-1.556c0-.863-.72-1.555-1.6-1.555" className="fillStrong"/>
    <path fill="#521094" fill-rule="evenodd" d="M10 2a8 8 0 1 0 .001 16.001A8 8 0 0 0 10 2m0 2.011A5.995 5.995 0 0 1 15.989 10 5.996 5.996 0 0 1 10 15.989 5.996 5.996 0 0 1 4.011 10 5.995 5.995 0 0 1 10 4.011" className="fill" clip-rule="evenodd"/>
</svg>
